X:1
T:Adowa, 88.68.86
T:Adowa, 88.68.86
T:Charles Hutchinson Gabriel, 1912
T:Public Domain Courtesy of the Cyber Hymnal™
C:Charles Hutchinson Gabriel, 1912
Z:Public Domain
Z:Courtesy of the Cyber Hymnal™
%%score ( 1 2 ) ( 3 4 )
L:1/8
Q:1/4=110
M:4/4
K:G
V:1 treble 
V:2 treble 
V:3 bass 
V:4 bass 
V:1
 D2 | [DG]2 [DG]2 [DG]3 [DA] | [GB]2 [GB]2 [GB]3 [Gc] | [Gd]2 [Gd]2 [Gd]2 [DB]2 | %4
 [Dc]2 [DB]2 [DA]2 [^CA]2 | [DA]2 [EG]2 [DF]2 [^CE]2 | D6 D2 | [Dd]2 [Dd]2 [Dd]3 [DB] | %8
 [DFc]2 [D^EB]2 [DFc]2 D2 | [Dc]2 [Dc]2 [Dc]3 [DB] | [DA]2 [D^G]2 [DA]2 D2 | %11
 [Dd]2 [Ec]2 [DB]2 [DA]2 | [DG]6 |] %13
V:2
 D2 | x8 | x8 | x8 | x8 | x8 | D6 D2 | x8 | x6 D2 | x8 | x6 D2 | x8 | x6 |] %13
V:3
 D,2 | [G,B,]2 [G,B,]2 [G,B,]3 [G,C] | [G,D]2 [G,D]2 [G,D]3 [G,A,] | [G,B,]2 [G,B,]2 [G,B,]2 G,2 | %4
 [F,A,]2 G,2 [D,F,]2 [E,G,]2 | [F,A,]2 [F,A,]2 A,2 [A,,G,]2 | [D,F,]6 [D,F,]2 | %7
 [D,B,]2 [D,B,]2 [D,B,]3 [D,^G,] | [D,A,]2 [D,^G,]2 [D,A,]2 [D,F,]2 | %9
 [D,A,]2 [D,A,]2 [D,A,]3 [D,G,] | [D,F,]2 [D,^E,]2 [D,F,]2 [C,F,]2 | %11
 [B,,G,]2 [C,G,]2 [D,G,]2 [D,C]2 | [G,,B,]6 |] %13
V:4
 D,2 | x8 | x8 | x6 G,2 | x2 G,2 x4 | x4 A,2 x2 | x8 | x8 | x8 | x8 | x8 | x8 | x6 |] %13

